public/icons/Stack-2.svg

<svg width="170" height="41" viewBox="0 0 170 41" fill="none" xmlns="http://www.w3.org/2000/svg">
<rect y="0.117676" width="40" height="40" rx="4" fill="#141414"/>
<g opacity="0.3">
<path d="M27.8947 33.2127L29.5223 32.1358C29.6498 32.5365 30.4575 33.4882 31.4777 33.4882C32.498 33.4882 32.9717 32.9309 32.9717 32.5615C32.9717 31.5548 31.9299 31.1998 31.4295 31.0293C31.3479 31.0016 31.2808 30.9787 31.2348 30.9587C31.2113 30.9484 31.1756 30.9348 31.1299 30.9173C30.5734 30.7047 28.5202 29.9203 28.5202 27.6465C28.5202 25.142 30.9372 24.854 31.4838 24.854C31.8414 24.854 33.5607 24.8978 34.417 26.507L32.8381 27.6089C32.4919 26.9077 31.9168 26.676 31.5628 26.676C30.6883 26.676 30.5061 27.3171 30.5061 27.6089C30.5061 28.4278 31.4562 28.7948 32.2584 29.1047C32.4683 29.1858 32.6681 29.2629 32.8381 29.3433C33.7126 29.7565 35 30.4327 35 32.5615C35 33.6278 34.1057 35.354 31.8543 35.354C28.83 35.354 28.0283 33.5383 27.8947 33.2127Z" fill="white"/>
<path d="M20 33.4265L21.6963 32.3502C21.8292 32.7507 22.3457 33.4891 23.0952 33.4891C23.8446 33.4891 24.2281 32.7194 24.2281 32.3502V25.0909H26.3144V32.3502C26.3481 33.3514 25.7928 35.354 23.342 35.354C21.0887 35.354 20.1519 34.0148 20 33.4265Z" fill="white"/>
</g>
<rect x="65" y="0.117676" width="40" height="40" rx="4" fill="#141414"/>
<path opacity="0.3" d="M97.1296 19.1251L96.0834 18.4769C96.0745 18.3748 96.0645 18.2731 96.0536 18.1718L96.9545 17.3329C97.046 17.2475 97.087 17.1212 97.0622 16.9992C97.0381 16.8765 96.9521 16.7754 96.8351 16.7323L95.6839 16.3033C95.6551 16.2036 95.6248 16.1047 95.5938 16.0054L96.3112 15.0091C96.3844 14.9078 96.3994 14.776 96.3517 14.6612C96.3041 14.546 96.1999 14.4636 96.0776 14.4433L94.8645 14.246C94.8173 14.154 94.7682 14.0634 94.7187 13.9743L95.2287 12.8541C95.2809 12.7402 95.2702 12.6086 95.2006 12.5038C95.1312 12.3999 95.0137 12.3391 94.8884 12.3439L93.6562 12.3868C93.5926 12.3072 93.5277 12.2283 93.4617 12.1508L93.7453 10.952C93.7739 10.8302 93.7379 10.7018 93.6493 10.6136C93.5613 10.5254 93.4336 10.4889 93.3108 10.5175L92.112 10.8011C92.0343 10.7354 91.9555 10.6703 91.8756 10.6067L91.9188 9.37449C91.9235 9.24984 91.8627 9.13139 91.7588 9.06227C91.6547 8.99268 91.5229 8.98219 91.4085 9.03391L90.2907 9.54394C90.2004 9.49437 90.1098 9.44527 90.019 9.39784L89.8212 8.18474C89.8012 8.06176 89.7187 7.95737 89.6034 7.91065C89.4882 7.86275 89.3555 7.87824 89.2554 7.95117L88.2592 8.66855C88.161 8.63733 88.0623 8.6073 87.9636 8.5787L87.5346 7.42756C87.491 7.3103 87.39 7.22426 87.2677 7.19995C87.1452 7.17588 87.0198 7.21663 86.934 7.30767L86.0951 8.20857C85.9938 8.19737 85.8918 8.18712 85.7901 8.17878L85.1418 7.13012C85.0762 7.02406 84.9602 6.95947 84.8343 6.95947C84.7085 6.95947 84.5936 7.02406 84.5293 7.13012L83.881 8.17878C83.779 8.18712 83.677 8.19737 83.5759 8.20857L82.737 7.30767C82.6519 7.21663 82.5256 7.17588 82.4034 7.19995C82.2806 7.2245 82.1796 7.3103 82.1364 7.42756L81.7074 8.5787C81.6078 8.6073 81.5091 8.63757 81.4119 8.66855L80.4157 7.95117C80.3144 7.878 80.1823 7.86251 80.0677 7.91065C79.9526 7.95832 79.8699 8.06271 79.8499 8.18474L79.6521 9.39784C79.5605 9.44527 79.47 9.49413 79.3804 9.54394L78.2626 9.03391C78.1489 8.98196 78.0171 8.99268 77.9122 9.06227C77.8083 9.13139 77.7475 9.24984 77.7523 9.37449L77.7952 10.6067C77.7156 10.6703 77.6367 10.7354 77.5588 10.8011L76.36 10.5175C76.2382 10.4892 76.1097 10.5254 76.0215 10.6136C75.9329 10.702 75.8969 10.8295 75.9255 10.952L76.2067 12.1508C76.1412 12.2285 76.0764 12.3072 76.0127 12.3868L74.7806 12.3439C74.6564 12.3403 74.5375 12.3999 74.4683 12.5038C74.3988 12.6072 74.3883 12.7397 74.44 12.8541L74.95 13.9743C74.9004 14.0641 74.8513 14.1547 74.8039 14.246L73.5908 14.4433C73.4676 14.4633 73.3637 14.5458 73.3167 14.6612C73.2691 14.7768 73.2845 14.909 73.3572 15.0091L74.0746 16.0054C74.0434 16.1038 74.0131 16.2027 73.9845 16.3033L72.8334 16.7323C72.7166 16.7759 72.6306 16.8769 72.6063 16.9992C72.5819 17.1217 72.6227 17.2471 72.714 17.3329L73.6149 18.1718C73.6037 18.2731 73.5937 18.3751 73.5851 18.4769L72.5388 19.1251C72.4328 19.1907 72.3682 19.3065 72.3682 19.4326C72.3682 19.5586 72.4328 19.6733 72.5388 19.7376L73.5851 20.3859C73.5937 20.4879 73.6037 20.5897 73.6149 20.691L72.714 21.5299C72.6227 21.615 72.5819 21.7413 72.6063 21.8635C72.6306 21.9863 72.7166 22.0871 72.8334 22.1305L73.9845 22.5595C74.0131 22.6591 74.0434 22.758 74.0746 22.8574L73.3572 23.8536C73.2843 23.9551 73.2688 24.0869 73.3167 24.2016C73.3646 24.3172 73.4688 24.3996 73.5932 24.4194L74.8063 24.6168C74.8537 24.7088 74.9023 24.7993 74.9524 24.8885L74.4424 26.0062C74.3904 26.1199 74.4011 26.2517 74.4707 26.3566C74.5403 26.4607 74.6588 26.5215 74.7829 26.5165L76.0127 26.4734C76.0768 26.5534 76.1414 26.6319 76.2072 26.7098L75.926 27.9086C75.8974 28.0301 75.9334 28.1565 76.022 28.2446C76.11 28.3335 76.238 28.3691 76.3605 28.3405L77.5593 28.0592C77.6372 28.1255 77.7161 28.1898 77.7957 28.2532L77.7528 29.4854C77.748 29.61 77.8088 29.7285 77.9127 29.7976C78.0161 29.867 78.1487 29.8775 78.2631 29.8255L79.3808 29.3155C79.4709 29.3655 79.5615 29.4141 79.6525 29.4616L79.8503 30.6747C79.8704 30.7981 79.9528 30.9025 80.0682 30.9511C80.1833 30.999 80.316 30.9836 80.4161 30.9109L81.4124 30.1935C81.5108 30.2247 81.6097 30.2552 81.7103 30.2838L82.1393 31.435C82.1829 31.5517 82.284 31.6382 82.4062 31.6621C82.5287 31.6869 82.6541 31.6459 82.7399 31.5544L83.5788 30.6535C83.6801 30.6651 83.7821 30.6749 83.8839 30.684L84.5321 31.7302C84.5974 31.8358 84.7135 31.9009 84.8372 31.9009C84.9609 31.9009 85.0779 31.8361 85.1446 31.7302L85.7929 30.684C85.8949 30.6749 85.9967 30.6651 86.098 30.6535L86.9369 31.5544C87.022 31.6459 87.1483 31.6869 87.2706 31.6621C87.3933 31.638 87.4944 31.5517 87.5375 31.435L87.9665 30.2838C88.0661 30.2552 88.165 30.2247 88.2644 30.1935L89.2606 30.9109C89.3619 30.9836 89.494 30.999 89.6086 30.9511C89.724 30.9037 89.8064 30.7991 89.8264 30.6747L90.0243 29.4616C90.1158 29.4141 90.2063 29.3648 90.2959 29.3155L91.4137 29.8255C91.5274 29.8775 91.6592 29.867 91.7641 29.7976C91.868 29.728 91.9285 29.61 91.924 29.4854L91.8811 28.2532C91.9607 28.1896 92.0396 28.1255 92.1173 28.0592L93.3161 28.3405C93.4379 28.3691 93.5663 28.3335 93.6545 28.2446C93.7432 28.1562 93.7792 28.0292 93.7506 27.9086L93.4693 26.7098C93.5351 26.6319 93.5999 26.5534 93.6633 26.4734L94.8955 26.5165C95.0197 26.5215 95.1386 26.4607 95.2077 26.3566C95.2773 26.2527 95.288 26.1204 95.2359 26.0062L94.7258 24.8885C94.7756 24.7981 94.8245 24.7076 94.8717 24.6168L96.0848 24.4194C96.2082 24.3996 96.3122 24.3172 96.3589 24.2016C96.4065 24.0865 96.3915 23.9537 96.3184 23.8536L95.601 22.8574C95.632 22.759 95.6622 22.6601 95.6911 22.5595L96.8422 22.1305C96.9592 22.0866 97.0455 21.9858 97.0693 21.8635C97.0941 21.741 97.0531 21.6157 96.9616 21.5299L96.0607 20.691C96.0717 20.5897 96.0817 20.4877 96.0905 20.3859L97.1368 19.7376C97.2428 19.6723 97.3074 19.5563 97.3074 19.4326C97.3074 19.3089 97.2431 19.1918 97.137 19.1251H97.1296ZM90.1227 27.8242C89.7223 27.7379 89.4697 27.3428 89.5555 26.9424C89.641 26.542 90.0345 26.287 90.4349 26.3728C90.8353 26.4583 91.0903 26.8542 91.0045 27.2546C90.9187 27.655 90.5255 27.91 90.1251 27.8242H90.1227ZM89.7676 25.4171C89.4029 25.3389 89.043 25.571 88.9668 25.9366L88.595 27.6717C87.4486 28.1913 86.164 28.482 84.8293 28.482C83.4565 28.482 82.16 28.1793 80.9922 27.6359L80.6204 25.9009C80.5422 25.5362 80.1843 25.3027 79.8196 25.3813L78.2871 25.7102C78.0035 25.4171 77.739 25.1049 77.4959 24.776H84.9557C85.04 24.776 85.0963 24.7607 85.0963 24.684V22.0385C85.0963 21.9617 85.04 21.9465 84.9557 21.9465H82.7749V20.2758H85.132C85.3472 20.2758 86.2832 20.3373 86.5811 21.5342C86.6747 21.9012 86.8814 23.0976 87.022 23.4813C87.1621 23.9103 87.7322 24.7683 88.34 24.7683H92.0579C92.1001 24.7683 92.1452 24.7636 92.1926 24.755C91.9352 25.1053 91.6516 25.4366 91.3489 25.7464L89.7807 25.4104L89.7676 25.4171ZM79.4478 27.7885C79.0474 27.8748 78.6542 27.6197 78.5684 27.2189C78.4828 26.8185 78.7371 26.4228 79.138 26.337C79.5384 26.2515 79.9316 26.5065 80.0174 26.9066C80.103 27.307 79.8484 27.7027 79.4478 27.7885ZM76.6117 16.3247C76.7775 16.6989 76.6088 17.1374 76.2351 17.3043C75.8609 17.4704 75.4248 17.3014 75.2579 16.9277C75.0911 16.554 75.2608 16.115 75.6345 15.9482C76.0087 15.7823 76.4448 15.951 76.6117 16.3247ZM75.7417 18.3839L77.3386 17.6737C77.6794 17.5223 77.8343 17.1231 77.6818 16.7823L77.3529 16.0387H78.6446V21.854H76.0468C75.8206 21.058 75.6988 20.2191 75.6988 19.3515C75.6988 19.0203 75.7167 18.6937 75.751 18.372L75.7417 18.3839ZM82.7487 17.8191V16.1031H85.8232C85.9821 16.1031 86.9457 16.2868 86.9457 17.0063C86.9457 17.6046 86.2069 17.8191 85.5991 17.8191H82.7392H82.7487ZM93.9265 19.3634C93.9265 19.5913 93.9181 19.8163 93.9014 20.0403H92.9648C92.8711 20.0403 92.8335 20.1018 92.8335 20.1936V20.6226C92.8335 21.6331 92.2639 21.8547 91.7634 21.9095C91.2867 21.9632 90.76 21.7103 90.6956 21.4186C90.4144 19.8384 89.9473 19.5024 89.2084 18.9161C90.126 18.3346 91.0793 17.4742 91.0793 16.3183C91.0793 15.0766 90.2285 14.2948 89.6494 13.9111C88.8343 13.3749 87.9334 13.2676 87.6903 13.2676H78.014C79.3272 11.8043 81.1123 10.7652 83.1143 10.3838L84.2559 11.5802C84.5133 11.8496 84.9399 11.8615 85.2116 11.6022L86.4891 10.3819C89.1584 10.88 91.4225 12.5436 92.7334 14.8387L91.8587 16.8121C91.7078 17.1529 91.8618 17.5533 92.2019 17.7035L93.8845 18.4518C93.9136 18.7497 93.9288 19.0524 93.9288 19.3575L93.9265 19.3634ZM84.2502 9.37735C84.5457 9.09373 85.0152 9.10565 85.2965 9.40142C85.5777 9.69695 85.5682 10.1665 85.2719 10.4501C84.9764 10.7337 84.5069 10.7218 84.2256 10.4258C83.9444 10.1302 83.9539 9.66072 84.2502 9.37711V9.37735ZM92.9255 16.3605C93.0911 15.9863 93.5284 15.8171 93.9026 15.9839C94.2768 16.1498 94.446 16.5893 94.2792 16.9634C94.1135 17.3376 93.6762 17.5068 93.302 17.34C92.9278 17.1741 92.7586 16.7346 92.9255 16.3605Z" fill="white"/>
<rect x="130" y="0.117676" width="40" height="40" rx="4" fill="#141414"/>
<g opacity="0.3">
<path d="M149.884 10.5103V17.2214L155.556 19.7563L149.884 10.5103Z" fill="white" fill-opacity="0.602"/>
<path d="M149.883 10.5103L144.211 19.7563L149.883 17.2214V10.5103Z" fill="white"/>
<path d="M149.884 24.1047V28.6649L155.559 20.812L149.884 24.1047Z" fill="white" fill-opacity="0.602"/>
<path d="M149.883 28.6649V24.1047L144.211 20.812L149.883 28.6649Z" fill="white"/>
<path d="M149.884 23.0488L155.556 19.7561L149.884 17.2212V23.0488Z" fill="white" fill-opacity="0.2"/>
<path d="M144.211 19.7571L149.883 23.0498V17.2222L144.211 19.7571Z" fill="white" fill-opacity="0.602"/>
</g>
</svg>

<svg xmlns="http://www.w3.org/2000/svg" width="170" height="41" fill="none"><rect width="40" height="40" y=".118" fill="#141414" rx="4"/><g fill="#fff" opacity=".3"><path d="m27.895 33.213 1.627-1.077c.128.4.936 1.352 1.956 1.352s1.494-.557 1.494-.926c0-1.007-1.042-1.362-1.543-1.533a2.87 2.87 0 0 1-.194-.07l-.105-.042c-.557-.212-2.61-.997-2.61-3.27 0-2.505 2.417-2.793 2.964-2.793.357 0 2.077.044 2.933 1.653l-1.579 1.102c-.346-.701-.921-.933-1.275-.933-.875 0-1.057.641-1.057.933 0 .819.95 1.186 1.752 1.496.21.08.41.158.58.238.875.413 2.162 1.09 2.162 3.219 0 1.066-.894 2.792-3.146 2.792-3.024 0-3.826-1.816-3.96-2.141ZM20 33.426l1.696-1.076c.133.4.65 1.14 1.4 1.14.749 0 1.132-.77 1.132-1.14v-7.26h2.086v7.26c.034 1.001-.521 3.004-2.972 3.004-2.253 0-3.19-1.34-3.342-1.928Z"/></g><rect width="40" height="40" x="65" y=".118" fill="#141414" rx="4"/><path fill="#fff" d="m97.13 19.125-1.047-.648a15.146 15.146 0 0 0-.03-.305l.901-.84a.359.359 0 0 0-.119-.6l-1.151-.429c-.029-.1-.06-.198-.09-.298l.717-.996a.359.359 0 0 0-.233-.566l-1.213-.197a9.328 9.328 0 0 0-.146-.272l.51-1.12a.36.36 0 0 0-.34-.51l-1.233.043a9.78 9.78 0 0 0-.194-.236l.283-1.199a.361.361 0 0 0-.434-.434l-1.199.283c-.078-.066-.156-.13-.236-.194l.043-1.233a.36.36 0 0 0-.51-.34l-1.118.51c-.09-.05-.181-.099-.272-.146l-.198-1.213a.359.359 0 0 0-.566-.234l-.996.718a11.997 11.997 0 0 0-.295-.09l-.43-1.151a.36.36 0 0 0-.6-.12l-.839.9a10.85 10.85 0 0 0-.305-.03l-.648-1.048a.36.36 0 0 0-.613 0l-.648 1.049c-.102.008-.204.018-.305.03l-.839-.901a.361.361 0 0 0-.6.12l-.43 1.15-.295.09-.996-.717a.361.361 0 0 0-.566.234l-.198 1.213c-.091.047-.182.096-.272.146l-1.117-.51a.36.36 0 0 0-.51.34l.042 1.233c-.08.063-.158.128-.236.194l-1.199-.284a.36.36 0 0 0-.434.434l.28 1.2c-.065.078-.13.156-.193.236l-1.232-.043a.362.362 0 0 0-.341.51l.51 1.12c-.05.09-.099.18-.146.272l-1.213.197a.36.36 0 0 0-.234.566l.718.996a10.33 10.33 0 0 0-.09.298l-1.152.43a.36.36 0 0 0-.119.6l.9.839-.029.305-1.046.648a.36.36 0 0 0 0 .613l1.046.648c.009.102.019.204.03.305l-.901.839a.36.36 0 0 0 .12.6l1.15.43.09.297-.717.997a.36.36 0 0 0 .236.565l1.213.198c.048.092.096.182.146.271l-.51 1.118a.36.36 0 0 0 .34.51l1.23-.043.195.237-.281 1.199a.36.36 0 0 0 .434.432l1.2-.282c.077.066.156.13.236.194l-.043 1.232a.359.359 0 0 0 .51.34l1.118-.51c.09.05.18.1.272.147l.197 1.213a.36.36 0 0 0 .566.236l.996-.718c.099.032.198.062.298.09l.43 1.152a.36.36 0 0 0 .6.12l.839-.901c.101.011.203.02.305.03l.648 1.046a.36.36 0 0 0 .613 0l.648-1.046c.102-.01.204-.019.305-.03l.839.9a.359.359 0 0 0 .6-.119l.43-1.151c.1-.029.198-.06.297-.09l.997.717a.36.36 0 0 0 .565-.236l.198-1.213c.092-.048.182-.097.272-.146l1.118.51a.361.361 0 0 0 .51-.34l-.043-1.233a9.46 9.46 0 0 0 .236-.194l1.2.281a.36.36 0 0 0 .434-.431l-.282-1.2a9.78 9.78 0 0 0 .194-.236l1.233.044a.36.36 0 0 0 .34-.51l-.51-1.118c.05-.09.099-.181.146-.272l1.213-.198a.36.36 0 0 0 .234-.566l-.718-.996c.031-.098.061-.197.09-.297l1.151-.43a.36.36 0 0 0 .12-.6l-.901-.839.03-.305 1.046-.648a.36.36 0 0 0 0-.613h-.007Zm-7.007 8.7a.742.742 0 1 1 .002 0h-.002Zm-.355-2.408a.673.673 0 0 0-.801.52l-.372 1.735a9.133 9.133 0 0 1-7.603-.036L80.62 25.9a.674.674 0 0 0-.8-.52l-1.533.33a9.254 9.254 0 0 1-.791-.935h7.46c.084 0 .14-.015.14-.092v-2.646c0-.076-.056-.091-.14-.091h-2.181v-1.671h2.357c.215 0 1.151.061 1.45 1.258.093.367.3 1.564.44 1.947.14.43.71 1.287 1.318 1.287h3.718a.76.76 0 0 0 .135-.013 9.31 9.31 0 0 1-.844.991l-1.568-.336-.013.007Zm-10.32 2.371a.743.743 0 0 1-.31-1.451.74.74 0 1 1 .31 1.451Zm-2.836-11.463a.74.74 0 1 1-1.354.605.74.74 0 0 1 1.354-.605Zm-.87 2.059 1.597-.71a.675.675 0 0 0 .343-.892l-.33-.743h1.293v5.815h-2.598a9.14 9.14 0 0 1-.296-3.482l-.01.012Zm7.007-.565v-1.716h3.074c.16 0 1.123.184 1.123.903 0 .599-.74.813-1.347.813h-2.86.01Zm11.178 1.544c0 .228-.009.453-.026.677h-.936c-.094 0-.132.062-.132.154v.429c0 1.01-.57 1.232-1.07 1.287-.476.053-1.003-.2-1.067-.491-.282-1.58-.749-1.917-1.488-2.503.918-.581 1.871-1.442 1.871-2.598 0-1.241-.85-2.023-1.43-2.407-.815-.536-1.716-.643-1.959-.643h-9.676a9.174 9.174 0 0 1 5.1-2.884l1.142 1.196c.257.27.684.281.956.022l1.277-1.22a9.134 9.134 0 0 1 6.244 4.457l-.874 1.973c-.151.34.003.741.343.891l1.683.749c.029.298.044.6.044.905l-.002.006ZM84.25 9.377a.739.739 0 0 1 1.046.024.743.743 0 0 1-.024 1.05.738.738 0 0 1-1.046-.025.743.743 0 0 1 .024-1.049Zm8.675 6.983a.742.742 0 1 1 1.352.603.742.742 0 0 1-1.352-.603Z" opacity=".3"/><rect width="40" height="40" x="130" y=".118" fill="#141414" rx="4"/><g fill="#fff" opacity=".3"><path fill-opacity=".602" d="M149.884 10.51v6.711l5.672 2.535-5.672-9.246Z"/><path d="m149.883 10.51-5.672 9.246 5.672-2.535v-6.71Z"/><path fill-opacity=".602" d="M149.884 24.105v4.56l5.675-7.853-5.675 3.293Z"/><path d="M149.883 28.665v-4.56l-5.672-3.293 5.672 7.853Z"/><path fill-opacity=".2" d="m149.884 23.049 5.672-3.293-5.672-2.535v5.828Z"/><path fill-opacity=".602" d="m144.211 19.757 5.672 3.293v-5.828l-5.672 2.535Z"/></g></svg>
